dist/img/ft1.svg

<svg width="18" height="18" viewBox="0 0 18 18" fill="none" xmlns="http://www.w3.org/2000/svg">
<g clip-path="url(#clip0_1275_5294)">
<path d="M4.905 3.75C4.95 4.4175 5.0625 5.07 5.2425 5.6925L4.3425 6.5925C4.035 5.6925 3.84 4.74 3.7725 3.75H4.905ZM12.3 12.765C12.9375 12.945 13.59 13.0575 14.25 13.1025V14.22C13.26 14.1525 12.3075 13.9575 11.4 13.6575L12.3 12.765ZM5.625 2.25H3C2.5875 2.25 2.25 2.5875 2.25 3C2.25 10.0425 7.9575 15.75 15 15.75C15.4125 15.75 15.75 15.4125 15.75 15V12.3825C15.75 11.97 15.4125 11.6325 15 11.6325C14.07 11.6325 13.1625 11.4825 12.3225 11.205C12.2475 11.175 12.165 11.1675 12.09 11.1675C11.895 11.1675 11.7075 11.2425 11.5575 11.385L9.9075 13.035C7.785 11.9475 6.045 10.215 4.965 8.0925L6.615 6.4425C6.825 6.2325 6.885 5.94 6.8025 5.6775C6.525 4.8375 6.375 3.9375 6.375 3C6.375 2.5875 6.0375 2.25 5.625 2.25Z" fill="#EDECF4"/>
</g>
<defs>
<clipPath id="clip0_1275_5294">
<rect width="18" height="18" fill="white"/>
</clipPath>
</defs>
</svg>

<svg width="18" height="18" fill="none" xmlns="http://www.w3.org/2000/svg"><g clip-path="url(#clip0_1275_5294)"><path d="M4.905 3.75c.045.668.157 1.32.337 1.942l-.9.9a11.12 11.12 0 01-.57-2.842h1.133zm7.395 9.015c.637.18 1.29.292 1.95.337v1.118a11.57 11.57 0 01-2.85-.563l.9-.892zM5.625 2.25H3a.752.752 0 00-.75.75c0 7.043 5.707 12.75 12.75 12.75.412 0 .75-.338.75-.75v-2.617a.752.752 0 00-.75-.75c-.93 0-1.838-.15-2.678-.428a.768.768 0 00-.765.18l-1.65 1.65a11.361 11.361 0 01-4.942-4.943l1.65-1.65c.21-.21.27-.502.188-.764A8.52 8.52 0 016.375 3a.752.752 0 00-.75-.75z" fill="#EDECF4"/></g><defs><clipPath id="clip0_1275_5294"><path fill="#fff" d="M0 0h18v18H0z"/></clipPath></defs></svg>
